X: 5
T: The Banks Of Lough Gowna
R: jig
M: 6/8
L: 1/8
K: Gmaj
AB |: cAB cBc| dcd ede| ~A3 cde | dcA AGE|cAB cBc| dcd ~e3| ~a3 ged |1cAG A2 B:|2cAG A2d||: eaa aba|gef ~g3|eaa aba |ged cAA|eaa eaa| gef ~g3| ~a3 ged| cAG A2d:|


Tune 775	Setting 13900

